X: 19
T:Humours of California
% Nottingham Music Database
S:Lesley Dolman
M:4/4
L:1/8
R:Hornpipe
K:G
D2/3E2/3F2/3|"G"GFGB "D7"AGED|"G"GBdg "C"e2 "D7"d2/3e2/3f2/3|"G"gfgd "Em"edBG|\
"Am"ABAG "D7"E2 D2/3E2/3F2/3|
"G"GFGB "D7"AGED|"G"GBdg "C"e2 "D7"d2/3e2/3f2/3|"G"gfgd "Em"edBG|"D7"A2/3B2/3A2/3 GF "G"G2:|:
d2/3e2/3f2/3|"Em"gfeg "D"fedf|"C"edef "G"edBd|"Em"gfgd edBG|"Am"ABAG "D7"E2 D2/3E2/3F2/3|
"G"GFGB "D7"AGED|"G"GBdg "C"e2 "D7"d2/3e2/3f2/3|"G"gfgd "Em"edBG|"D7"A2/3B2/3A2/3 GF "G"G2:|


